!!!OTL: Yigen miansha bucheng xian
!!!ARE: Asia, China,ÿJiangsu Jiangdu
!! III: 436
!!!SCT: C1786
!!!YEM: Copyright 1995, estate of Helmut Schaffrath.
**kern
*ICvox
*Ivox
*M2/4
*k[f#c#]
*D:
{8a
8f#
8a
8dd
=1
2b
=2
8a
8dd
8a
8f#
=3
8f#
4.d}
=4
{8e
8d
8e
8f#
=5
8a
8b
8a
8e
=6
8e
4B
8r}
=7
{8a
8g#
8b
8b
=8
8dd
8b
8a
8f#
=9
8a
8a
4e
=10
2d}
=11
{8a
16b
16dd
16b
16a
8g#
=12
2a}
=13
{8a
16b
16dd
16b
16a
8g#
=14
2a}
=15
{8a
16a
16f#
8a
8b
=16
8dd
16dd
16b
4a}
=17
{8a
16a
16f#
8a
8b
=18
4dd
8dd
8ff#
=19
8ee
16dd
16b
8a
16a
16g#
=20
2a}
==
!!!AGN: Xiaodiao, Qiutiange, Geduanduan
!!!AMT: simple duple
!!!AIN: vox
!!!EED: Helmut Schaffrath
!!!EEV: 1.0
*-
